X:1
T:Title
%%score { ( 1 4 5 ) | ( 2 3 6 ) }
L:1/8
M:4/4
K:D
V:1 treble nm="Grand Piano"
V:4 treble 
V:5 treble 
V:2 bass 
V:3 bass 
V:6 bass 
V:1
 z4 z2[Q:1/4=100] DE | F2 FF F3 F | FEFG [FA]3 [FA] | [FA]2 [GB][FA] [FA]2 [A,EG][A,DF] | %4
 [A,FA]2 [A,EG][A,DF][K:bass] [A,CE]2 D-[DE] | F2 FF F [FA]2 [FA] |[M:9/8] B2 B B B2- B B2 | %7
[M:17/16] d-<d[Ac][GB][FA][Fd]3/2[A,DA][B,EG] |[M:3/4] [DF]2 [A,CF]>[K:bass][G,CE] [F,D]2 | %9
[M:1/4] z z/[K:treble] E/ |[M:4/4] F6 z2 | A6 z2 | [FA]2 BA [A,EG]2 [A,DF]2 | [DF]4 z4 | F6 z2 | %15
 A6 z2 | B2 B>B .B2 z B | [FA]2 [FA]>[FA] [FA]2 [DF]2 | [CE][CE] [DF]2 .[EG]2 z2 | %19
 [DF][DF] [EG]2 .[FA]2 z2 | BB e2 d2 [Ec][Gc] |[M:3/4] [Fd]6 |] %22
V:2
 z4 z2 [D,F,][D,G,C] | [D,A,D]2 [D,A,D][D,A,D] [D,A,D]3 [D,A,D] | .D2 z2 z4 | %3
 [D,D]2 [D,D][D,D] [D,D]2 C,D, | D,2 C,D, A,,2 z G, | %5
 [D,A,D]2 [D,A,D][D,A,D] [D,A,D] [D,D]2 [D,D] | %6
[M:9/8][K:treble] [G,DG]2 [G,DG] [G,DG] [G,DG]2- [G,DG] [G,DG]2 | %7
[M:17/16] [G,B,G]-<[G,B,G][K:bass][G,D][G,D][D,D][D,A,]3/2F,G, |[M:3/4] A,2 A,,>A,, D,2 | %9
[M:1/4] D>C |[M:4/4] D6 z2 | F6 z2 | z2[K:treble] GF[K:bass] C,2 D,2 | z4 C2 z z/ C/ | D6 z2 | %15
 F6 z2 | [G,DG]2 [G,DG]>[G,DG] .[G,DG]2 z [G,DG] | [D,D]2 [D,D]>[D,D] [D,D]2 [D,A,]2 | %18
 [A,,A,][A,,A,] [A,,A,]2 .[A,,A,]2 z2 | [D,A,][D,A,] [D,A,]2 .[D,D]2 z2 | %20
 [G,DG][G,DG] [G,B,G]2 [A,F]2[K:bass] [A,,A,][A,,A,] |[M:3/4] [D,A,]6 |] %22
V:3
 x8 | x8 | A,-[G,A,C][F,A,D][E,CE] [D,D]3 [D,D] | x8 | z4 z2 D,2 | x8 |[M:9/8][K:treble] x9 | %7
[M:17/16] x2[K:bass] x13/2 |[M:3/4] x6 |[M:1/4] x2 |[M:4/4] z2 D,>D, z2 D>E | z2 D,>D, D,2 [D,D]2 | %12
 [D,D]4[K:treble][K:bass] z4 | A,,6 z2 | z2 D,>D, z2 D>E | z2 D,>D, D,2 D,2 | x8 | x8 | x8 | x8 | %20
 x6[K:bass] x2 |[M:3/4] x6 |] %22
V:4
 x8 | x8 | x8 | x8 | z4[K:bass] z2 .F,2 | x8 |[M:9/8] x9 |[M:17/16] x17/2 | %8
[M:3/4] x7/2[K:bass] x5/2 |[M:1/4] x3/2[K:treble] x/ |[M:4/4] z2 A,>A, z2 F>G | z2 D>D D2 [FA]2 | %12
 x8 | A,4- [A,E]2 D>E | z2 A,>A, z2 F>G | z2 D>D D2 [DFA]2 | x8 | x8 | x8 | x8 | x8 |[M:3/4] x6 |] %22
V:5
 x8 | x8 | x8 | x8 | x4[K:bass] x4 | x8 |[M:9/8] x9 |[M:17/16] x17/2 |[M:3/4] x7/2[K:bass] x5/2 | %9
[M:1/4] x3/2[K:treble] x/ |[M:4/4] z4 A,4- | A,2 z2 z4 | x8 | x8 | z4 A,4- | A,2 z2 z4 | x8 | x8 | %18
 x8 | x8 | x8 |[M:3/4] x6 |] %22
V:6
 x8 | x8 | x8 | x8 | x8 | x8 |[M:9/8][K:treble] x9 |[M:17/16] x2[K:bass] x13/2 |[M:3/4] x6 | %9
[M:1/4] x2 |[M:4/4] z4 D,4- | D,2 z2 z4 | x2[K:treble] x2[K:bass] x4 | x8 | z4 D,4- | D,2 z2 z4 | %16
 x8 | x8 | x8 | x8 | x6[K:bass] x2 |[M:3/4] x6 |] %22

